logos/optimizely-icon.svg

<?xml version="1.0" encoding="UTF-8"?>
<svg width="256px" height="248px" viewBox="0 0 256 248" version="1.1" xmlns="http://www.w3.org/2000/svg" preserveAspectRatio="xMidYMid">
    <title>Optimizely</title>
    <g>
        <path d="M85.2556223,135.865417 L85.2556223,165.654638 C107.985097,165.628071 129.776062,156.863995 145.848293,141.284598 C161.920525,125.7052 170.96157,104.583082 170.989466,82.5510134 L140.257086,82.5510134 C140.239152,96.6851189 134.438058,110.23606 124.127733,120.230227 C113.816744,130.225059 99.8373963,135.847484 85.2556223,135.865417 L85.2556223,135.865417 Z" fill="#3BE081"></path>
        <path d="M85.2469878,217.922268 C70.7701568,217.922268 56.8865199,212.347665 46.649987,202.425231 C36.4133877,192.502797 30.6625735,179.044844 30.6625735,165.01236 C30.6625735,150.979213 36.4133877,137.521924 46.649987,127.598825 C56.8865199,117.676391 70.7701568,112.101788 85.2469878,112.101788 L85.2469878,82.5316697 C74.0678934,82.5164752 62.9956682,84.6352626 52.6616976,88.7678944 C42.3277271,92.899862 32.9345912,98.9653061 25.0186951,106.616188 C17.102799,114.267069 10.8190998,123.355273 6.52640326,133.360067 C2.23370009,143.365526 0.0160566163,154.092303 0,164.928007 C-0.0158828754,175.763712 2.17013647,186.496466 6.43332938,196.513881 C10.6965555,206.530631 16.9534211,215.635439 24.8467345,223.308903 C32.7400479,230.981703 42.1152506,237.073051 52.4369999,241.233579 C62.7587492,245.394772 73.8247974,247.544776 85.0038918,247.560053 L85.2469878,247.560053 L85.2469878,217.922268 Z" fill="#0037FF"></path>
        <path d="M85.2556223,217.922932 L85.2556223,247.492969 C107.832332,247.492969 129.48448,238.799963 145.448447,223.325508 C161.412414,207.851054 170.381062,186.863103 170.381062,164.97915 L139.840634,164.97915 C139.831336,179.011634 134.078728,192.468259 123.844786,202.394014 C113.611507,212.319769 99.7331175,217.904999 85.2556223,217.922932 Z" fill="#00CCFF"></path>
        <path d="M85.2556223,52.943782 L85.2556223,82.5138184 C107.832332,82.5138184 129.48448,73.8208122 145.448447,58.3462914 C161.412414,42.8719034 170.381062,21.8840852 170.381062,0 L139.840634,0 C139.831336,14.0330147 134.078728,27.4891746 123.844786,37.4151292 C113.611507,47.3411501 99.7331175,52.9259151 85.2556223,52.943782 Z" fill="#861DFF"></path>
        <path d="M170.875224,52.943782 L170.875224,82.5138184 C193.451934,82.5138184 215.103417,73.8208122 231.067385,58.3462914 C247.032016,42.8719034 256,21.8840852 256,0 L225.476841,0 C225.467543,14.0358708 219.712278,27.494621 209.475015,37.4211069 C199.237751,47.3475264 185.355376,52.9303652 170.875224,52.943782 Z" fill="#FF8110"></path>
    </g>
</svg>

<?xml version="1.0" encoding="UTF-8"?>
<svg width="256" height="248" version="1.1" xmlns="http://www.w3.org/2000/svg" preserveAspectRatio="xMidYMid">
	<path d="M85.256 135.865v29.79c22.73-.027 44.52-8.791 60.592-24.37 16.073-15.58 25.114-36.702 25.141-58.734h-30.732c-.018 14.134-5.819 27.685-16.13 37.68-10.31 9.994-24.29 15.616-38.871 15.634Z" fill="#3BE081"/>
	<path d="M85.247 217.922c-14.477 0-28.36-5.574-38.597-15.497-10.237-9.922-15.987-23.38-15.987-37.413 0-14.033 5.75-27.49 15.987-37.413 10.237-9.923 24.12-15.497 38.597-15.497v-29.57a87.474 87.474 0 0 0-32.585 6.236C42.328 92.9 32.935 98.965 25.019 106.616s-14.2 16.74-18.493 26.744A80.33 80.33 0 0 0 0 164.928a80.323 80.323 0 0 0 6.433 31.586c4.264 10.017 10.52 19.121 18.414 26.795 7.893 7.673 17.268 13.764 27.59 17.925a87.457 87.457 0 0 0 32.567 6.326h.243v-29.638Z" fill="#0037FF"/>
	<path d="M85.256 217.923v29.57c22.576 0 44.228-8.693 60.192-24.167 15.964-15.475 24.933-36.463 24.933-58.347h-30.54c-.01 14.033-5.762 27.49-15.996 37.415-10.233 9.926-24.112 15.511-38.59 15.529Z" fill="#0CF"/>
	<path d="M85.256 52.944v29.57c22.576 0 44.228-8.693 60.192-24.168C161.412 42.872 170.381 21.884 170.381 0h-30.54c-.01 14.033-5.762 27.49-15.996 37.415-10.233 9.926-24.112 15.51-38.59 15.529Z" fill="#861DFF"/>
	<path d="M170.875 52.944v29.57c22.577 0 44.228-8.693 60.192-24.168C247.032 42.872 256 21.884 256 0h-30.523c-.01 14.036-5.765 27.495-16.002 37.421-10.237 9.927-24.12 15.51-38.6 15.523Z" fill="#FF8110"/>
</svg>
